X:1
T:Title
%%score ( 1 2 ) { 3 | 4 }
L:1/8
Q:1/4=95
M:4/4
K:Bb
V:1 treble nm="Grand Piano, Soprano"
V:2 treble 
V:3 treble nm="Choir Pad, Gary, 11.11.11 D"
V:4 bass 
V:1
 [B,D] [DG]2 [^FA] [FA] [GB]2 [Gc] | [Gc] [^Fd]2 [FA] [FB] G3 | [Gd][Ge][Ec][EA] [EG] ^F2 [DG] | %3
w: By~Philip~Phillips,~1880 * * * * *|||
 [EG] [=EA]2 [EB] [EA] [DA]3 | [EF] [DB]2 [Fd]- [Fd]/[Ec]/ [DB]2 [DB] | %5
w: ||
 [DF][EG][GB][FA] [EG] [DF]3 | [EF] [DB]2 [Fd]- [Fd]/[Ec]/ [DB]2 [DB] | %7
w: ||
 [DF][EG][GB][FA] [EG] [DF]3 | [DF] [DB]2 [Fe] [Fe] [Ff]2 [Fd] | [Fc] [FB]2 [EA] [DB] [Fc]3 | %10
w: |||
 z .e3 z4 | [=EG][DG]D[DB] [CA] [B,G]3- | [B,G]4 z4 |] %13
w: |||
V:2
 x8 | x8 | x8 | x8 | x8 | x8 | x8 | x8 | x8 | x8 | [Fd]EG[^Fd]- [Fd]/[Dc]/ [DB]2 [EA] | x8 | x8 |] %13
V:3
 G, B,2 D D D2 C | C A,2 C D[K:bass] B,3 | B, C2 C B, A,2 G, | G, G,2 G, G, ^F,3 | %4
 A, B,2 B,- B,/B,/ B,2 B, | B, B,2 B, B, B,3 | A, B,2 B,- B,/B,/ B,2 B, | B, B,2 B, B, B,3 | %8
 B, B,2 B, C D2 B, | A, B,2 F, F, A,3 | G,CB,A,- A,/A,/ G,2 G, | B, B,2 G, ^F, G,3- | G,4 z4 |] %13
V:4
 G,, G,,2 D, D, G,2 E, | E, D,2 D, D, G,,3 | G,, C,2 C, C, C,2 B,, | C, _D,2 D, D, =D,3 | %4
 F, B,,2 B,,- B,,/B,,/ B,,2 B,, | B,, E,2 E, E, B,,3 | F, B,,2 B,,- B,,/B,,/ B,,2 B,, | %7
 B,, E,2 E, E, B,,3 | B,, .B,,3 B, B,2 B,, | C, D,2 C, B,, F,3 | G,, C,2 D,- D,<.F, z C, | %11
 _D, =D,2 D, D, G,,3- | G,,4 z4 |] %13

